X:1
T:Title
%%score { ( 1 3 ) | ( 2 4 ) }
L:1/8
Q:1/4=110
M:3/4
K:Eb
V:1 treble nm="Grand Piano"
V:3 treble 
V:2 bass 
V:4 bass 
V:1
 E2 E2 E2 | z2 F2 G2 | A2 G2 [A,DF]2 | [G,E]6 | [B,FB]2 [Gc]2 d2 | e4 G2 | [B,B]2 [CA]2 [CEG]2 | %7
w: Joseph~Martine * *|||||||
 [DF]6 | [B,DF]2 [B,DF]2 [B,DG]2 | A2 z2 z2 | G2 z2 z2 | c6 | B2 A2 G2 | [CEF]4 [CEA]2 | %14
w: |||||||
 [B,EG]4 [A,DF]2 |[M:7/4] [G,E]6 z2 z2 z4 |[M:3/4] [A,CE]6 | [G,B,E]6 |] %18
w: ||||
V:2
 [E,G,]2 [E,G,]2 [E,G,]2 | G,2 A,2 [E,B,E]2 | [E,E]4 z2 | C,6 | D,2 [E,B,]2 [F,B,F]2 | %5
 [G,B,E]4 [E,B,E]2 | G,,2 A,,2 A,,2 | B,,6 | B,,2 B,,2 B,,2 | z2 G2 B,,2 | E,2 F,2 [G,_DE]2 | %11
 [A,CE]6 | [G,E]2 [F,B,D]2 [E,B,E]2 | A,,4 F,,2 | B,,4 B,,2 |[M:7/4] E,6 z2 z2 z4 |[M:3/4] A,,6 | %17
 E,6 |] %18
V:3
 x6 | E4 z2 | x6 | x6 | x6 | x6 | E4 z2 | x6 | x6 | [B,D]4 [B,DF]2 | [B,E]2- [B,EA]2 B2 | x6 | x6 | %13
 x6 | x6 |[M:7/4] x14 |[M:3/4] x6 | x6 |] %18
V:4
 x6 | E,4 z2 | C2 B,2 B,,2 | x6 | x6 | x6 | x6 | x6 | x6 | B,,4 z2 | x6 | x6 | x6 | x6 | x6 | %15
[M:7/4] x14 |[M:3/4] x6 | x6 |] %18

